static/assets/images/networks/fuse.svg

<svg width="256" height="256" viewBox="0 0 256 256" fill="none" xmlns="http://www.w3.org/2000/svg">
<path d="M128 256C198.692 256 256 198.692 256 128C256 57.3075 198.692 0 128 0C57.3075 0 0 57.3075 0 128C0 198.692 57.3075 256 128 256Z" fill="black"/>
<path fill-rule="evenodd" clip-rule="evenodd" d="M127.623 182.434C121.829 182.434 116.445 181.219 112.051 178.921L64.7279 154.18L50.5477 162.701C43.8073 166.75 43.9251 172.957 50.8103 176.558L116.262 210.781C119.441 212.441 123.505 213.259 127.623 213.259C132.432 213.259 137.311 212.146 140.943 209.965L205.018 171.459C211.758 167.408 211.641 161.2 204.755 157.602L191.148 150.484L145.623 177.844C140.696 180.803 134.305 182.434 127.623 182.434Z" fill="url(#paint0_linear_34_6)"/>
<path fill-rule="evenodd" clip-rule="evenodd" d="M205.176 116.631L193.814 110.602L145.888 139.826C140.948 142.84 134.537 144.497 127.841 144.497C122.031 144.497 116.633 143.262 112.227 140.926L62.4955 114.54L50.5615 121.818C43.8034 125.939 43.9192 132.252 50.8226 135.915L116.449 170.731C119.634 172.421 123.711 173.251 127.841 173.251C132.66 173.251 137.554 172.12 141.193 169.902L205.44 130.728C212.198 126.609 212.08 120.294 205.176 116.631Z" fill="url(#paint1_linear_34_6)"/>
<path fill-rule="evenodd" clip-rule="evenodd" d="M205.176 79.6943L139.55 45.4856C136.365 43.8234 132.29 43.008 128.158 43.008C123.339 43.008 118.445 44.1207 114.806 46.3009L50.5615 84.7936C43.8034 88.8411 43.9192 95.044 50.8226 98.6433L116.449 132.857C119.634 134.516 123.711 135.332 127.841 135.332C132.66 135.332 137.554 134.219 141.193 132.039L205.44 93.5462C212.198 89.4988 212.08 83.2935 205.176 79.6943Z" fill="url(#paint2_linear_34_6)"/>
<defs>
<linearGradient id="paint0_linear_34_6" x1="128" y1="-415.972" x2="128" y2="256" gradientUnits="userSpaceOnUse">
<stop stop-color="#B3F9BA"/>
<stop offset="1" stop-color="#F6FB8C"/>
</linearGradient>
<linearGradient id="paint1_linear_34_6" x1="128" y1="-253.316" x2="128" y2="404" gradientUnits="userSpaceOnUse">
<stop stop-color="#B1FFBF"/>
<stop offset="1" stop-color="#FFF16D"/>
</linearGradient>
<linearGradient id="paint2_linear_34_6" x1="128" y1="43.008" x2="128" y2="209.933" gradientUnits="userSpaceOnUse">
<stop stop-color="#B3F9BA"/>
<stop offset="1" stop-color="#F6FB8C"/>
</linearGradient>
</defs>
</svg>

<svg xmlns="http://www.w3.org/2000/svg" fill="none" viewBox="0 0 256 256"><path fill="#000" d="M128 256c70.692 0 128-57.308 128-128S198.692 0 128 0 0 57.308 0 128s57.308 128 128 128"/><path fill="url(#paint0_linear_34_6)" fill-rule="evenodd" d="M127.623 182.434c-5.794 0-11.178-1.215-15.572-3.513L64.728 154.18l-14.18 8.521c-6.74 4.049-6.623 10.256.262 13.857l65.452 34.223c3.179 1.66 7.243 2.478 11.361 2.478 4.809 0 9.688-1.113 13.32-3.294l64.075-38.506c6.74-4.051 6.623-10.259-.263-13.857l-13.607-7.118-45.525 27.36c-4.927 2.959-11.318 4.59-18 4.59" clip-rule="evenodd"/><path fill="url(#paint1_linear_34_6)" fill-rule="evenodd" d="m205.176 116.631-11.362-6.029-47.926 29.224c-4.94 3.014-11.351 4.671-18.047 4.671-5.81 0-11.208-1.235-15.614-3.571L62.495 114.54l-11.933 7.278c-6.759 4.121-6.643 10.434.26 14.097l65.627 34.816c3.185 1.69 7.262 2.52 11.392 2.52 4.819 0 9.713-1.131 13.352-3.349l64.247-39.174c6.758-4.119 6.64-10.434-.264-14.097" clip-rule="evenodd"/><path fill="url(#paint2_linear_34_6)" fill-rule="evenodd" d="M205.176 79.694 139.55 45.486c-3.185-1.663-7.26-2.478-11.392-2.478-4.819 0-9.713 1.113-13.352 3.293L50.562 84.794c-6.759 4.047-6.643 10.25.26 13.85l65.627 34.213c3.185 1.659 7.262 2.475 11.392 2.475 4.819 0 9.713-1.113 13.352-3.293l64.247-38.493c6.758-4.047 6.64-10.253-.264-13.852" clip-rule="evenodd"/><defs><linearGradient id="paint0_linear_34_6" x1="128" x2="128" y1="-415.972" y2="256" gradientUnits="userSpaceOnUse"><stop stop-color="#B3F9BA"/><stop offset="1" stop-color="#F6FB8C"/></linearGradient><linearGradient id="paint1_linear_34_6" x1="128" x2="128" y1="-253.316" y2="404" gradientUnits="userSpaceOnUse"><stop stop-color="#B1FFBF"/><stop offset="1" stop-color="#FFF16D"/></linearGradient><linearGradient id="paint2_linear_34_6" x1="128" x2="128" y1="43.008" y2="209.933" gradientUnits="userSpaceOnUse"><stop stop-color="#B3F9BA"/><stop offset="1" stop-color="#F6FB8C"/></linearGradient></defs></svg>
